shader_type spatial;

//#define FRAGMENT
//#include "res://addons/godot_shader_linker_(gsl)/Nodes/inc_shader/Mapping.gdshaderinc"
//
//uniform int mapping_type = 0;
//uniform vec3 vector = vec3(0.0);
//uniform vec3 location = vec3(0.0);
//uniform vec3 rotation_degrees = vec3(0.0);
//uniform vec3 scale = vec3(1.0);
//
//
//
//void fragment() {
    //vec3 output = apply_mapping(mapping_type, vector, output_result_mapping, rotation_degrees, scale);
//}
